X:1
T:Partition sans titre
C:Compositeur / Arrangeur
L:1/8
M:4/4
I:linebreak $
K:D
V:1 treble nm="Violon" snm="Vln."
V:1
"A" ABcd e2 ce |"D" agfa"E" gfeB |"A" ABcd e2 ce |"D" agfa"E" g3 g |"A" ABcd e2 ce | %5
"D" agfa"E" gfeB |"A" ABcd e2 ce/c/ |"E" BABc"A" A3 d ::"A" eAAB c2 Bc |"E" dcBd"A" A2 Ad | %10
 eAAB c2 Bc |"E" dcBd"A" cBAd |"A" eAAB c2 Bc |"E" dcBd"A" A2 Ad | eAAB c2 Bc |"E" BABc"A" A3 d :| %16
